!!!!SEGMENT: pl-kk--kk-i-7--110_gorczycki-grzegorz-gerwazy--omnium-sanctorum-pia-juvamina.krn
!!!cenid: 16xx:949
!!!COM: Gorczycki, Grzegorz Gerwazy
!!!COM-rismID: pe30009207
!!!CDT: ~1666-1734/04/30
!!!CNT: Polish
!!!OTL: Omnium sanctorum pia juvamina
!!!PDT:
!!!AGN: Sacred
!!!SMS-siglum: PL-Kk
!!!SMS-shelfmark: Kk.I.7
!!!SMS-shelfwork: 110 W
!!!SMS-variant:
!!!SMS-altvar:
!!!NIFC-rismSourceID: 300258077
!!!NIFC-rismChildID: 300258187
!!!NIFC-islandoraID: pl-kk:1956
!!!URL-pdf-islandora: https://repozytorium.nifc.pl/islandora/object/pl-kk%3A1956/datastream/PDF/view
!!!URL-scan: https://polish.musicsources.pl/pl/lokalizacje/galeria/rekopisy/6140 @EN{Scan on Polish Music Sources Website} @PL{Skany w portalu Dziedzictwo Muzyki Polskiej w otwartym dostępie}
!!!IIIF: https://repozytorium.nifc.pl/islandora/object/pl-kk%3A1956/datastream/IIIF/view
!!!ONB-nifc: UWAGA: C (skan 0082, s.156 ), A (0160, s.140), T(0247, s.156), B(0334, s.152). Następny utwór: Cur mundus militat
!!!AIN: 1 alto 1 bass 1 tenor 2 vox
!!!key:
**kern	**text	**text	**text	**text	**kern	**text	**text	**text	**text	**kern	**text	**text	**text	**text	**kern	**text	**text	**text	**text	**kern	**text	**text	**text	**text
*part5	*part5	*part5	*part5	*part5	*part4	*part4	*part4	*part4	*part4	*part3	*part3	*part3	*part3	*part3	*part2	*part2	*part2	*part2	*part2	*part1	*part1	*part1	*part1	*part1
*staff5	*staff5	*staff5	*staff5	*staff5	*staff4	*staff4	*staff4	*staff4	*staff4	*staff3	*staff3	*staff3	*staff3	*staff3	*staff2	*staff2	*staff2	*staff2	*staff2	*staff1	*staff1	*staff1	*staff1	*staff1
*group1	*	*	*	*	*group1	*	*	*	*	*group1	*	*	*	*	*group1	*	*	*	*	*group1	*	*	*	*
*	*verse1	*verse2	*verse3	*verse4	*	*verse1	*verse2	*verse3	*verse4	*	*verse1	*verse2	*verse3	*verse4	*	*verse1	*verse2	*verse3	*verse4	*	*verse1	*verse2	*verse3	*verse4
*Ibass	*	*	*	*	*Itenor	*	*	*	*	*Ialto	*	*	*	*	*Ivox	*	*	*	*	*Ivox	*	*	*	*
*I"BASSVS.	*	*	*	*	*I"TENOR.	*	*	*	*	*I"ALTVS.	*	*	*	*	*I"Canto 2do.	*	*	*	*	*I"Canto 1mo.	*	*	*	*
*I'B	*	*	*	*	*I'T	*	*	*	*	*I'A	*	*	*	*	*I'S II	*	*	*	*	*I'S I	*	*	*	*
*clefF3	*	*	*	*	*clefC4	*	*	*	*	*clefC3	*	*	*	*	*clefC1	*	*	*	*	*clefC1	*	*	*	*
*k[b-]	*	*	*	*	*k[b-]	*	*	*	*	*k[b-]	*	*	*	*	*k[b-]	*	*	*	*	*k[b-]	*	*	*	*
*F:	*	*	*	*	*F:	*	*	*	*	*F:	*	*	*	*	*F:	*	*	*	*	*F:	*	*	*	*
*M2/1	*	*	*	*	*M2/1	*	*	*	*	*M2/1	*	*	*	*	*M2/1	*	*	*	*	*M2/1	*	*	*	*
*met(C|)	*	*	*	*	*met(C|)	*	*	*	*	*met(C|)	*	*	*	*	*met(C|)	*	*	*	*	*met(C|)	*	*	*	*
=1-	=1-	=1-	=1-	=1-	=1-	=1-	=1-	=1-	=1-	=1-	=1-	=1-	=1-	=1-	=1-	=1-	=1-	=1-	=1-	=1-	=1-	=1-	=1-	=1-
*xywh-#334:879,376,6447,1960	*	*	*	*	*	*	*	*	*	*	*	*	*	*	*	*	*	*	*	*	*	*	*	*
*	*	*	*	*	*xywh-#247:984,378,6379,1976	*	*	*	*	*	*	*	*	*	*	*	*	*	*	*	*	*	*	*
*	*	*	*	*	*	*	*	*	*	*xywh-#160:944,366,6454,1891	*	*	*	*	*	*	*	*	*	*	*	*	*	*
*	*	*	*	*	*	*	*	*	*	*	*	*	*	*	*xywh-#82:716,3425,6692,1116	*	*	*	*	*	*	*	*	*
*	*	*	*	*	*	*	*	*	*	*	*	*	*	*	*	*	*	*	*	*xywh-#82:584,379,6648,1971	*	*	*	*
!LO:TX:a:t=Pro Festo Omnium Sanctorum à 5. Voci.	!	!	!	!	!LO:TX:a:t=Pro Festo OO. Sanctorum à 5. Voci.	!	!	!	!	!LO:TX:a:t=Pro Festo OO. Sanctorum	!	!	!	!	!	!	!	!	!	!LO:TX:a:t=Pro Festo OO. Sanctorum à 5. Voci.	!	!	!	!
!LO:TX:t=P:problem=kreska pseudotaktowa	!	!	!	!	!	!	!	!	!	!	!	!	!	!	!	!	!	!	!	!	!	!	!	!
!LO:TX:t=P:problem=przy kluczu BB-	!	!	!	!	!	!	!	!	!	!	!	!	!	!	!	!	!	!	!	!	!	!	!	!
1F	Om-	De-	Om-	An-	1F	Om-	DE-	Om-	An-	1c	Om-	DE-	Om-	An-	1f	Om-	De-	Om-	An-	1f	Om-	DE-	Om-	An-
!LO:TX:t=P:problem=kreska pseudotaktowa	!	!	!	!	!	!	!	!	!	!	!	!	!	!	!	!	!	!	!	!	!	!	!	!
1F	-ni-	-um	-nes	-ge-	1F	-ni-	-UM	-nes	-ge-	1c	-ni-	-UM	-nes	-ge-	1cc	-ni-	-um	-nes	-ge-	1a	-ni-	-UM	-nes	-ge-
=2-	=2-	=2-	=2-	=2-	=2-	=2-	=2-	=2-	=2-	=2-	=2-	=2-	=2-	=2-	=2-	=2-	=2-	=2-	=2-	=2-	=2-	=2-	=2-	=2-
!	!	!	!	!	!LO:TX:t=P:problem=kreska pseudotaktowa	!	!	!	!	!	!	!	!	!	!	!	!	!	!	!	!	!	!	!
!LO:TX:t=P:problem=kreska pseudotaktowa	!	!	!	!	!	!	!	!	!	!	!	!	!	!	!LO:TX:t=P:problem=kreska pseudotaktowa	!	!	!	!	!LO:TX:t=P:problem=kreska pseudotaktowa	!	!	!	!
1F	-um	e-	Cae-	-li-	1A,<	-um	e-	Cae-	-li-	1f	-um	e-	Cae-	-li-	1a	-um	e-	Cae-	-li-	1cc	-um	e-	Cae-	-li-
!LO:TX:t=P:problem=kreska pseudotaktowa	!	!	!	!	!	!	!	!	!	!	!	!	!	!	!	!	!	!	!	!	!	!	!	!
1G	San-	-xo-	-li-	-co	1B-	San-	-xo-	-li-	-co	1d	San-	-xo-	-li-	-co	1dd	San-	-xo-	-li-	-co	1b-	San-	-xo-	-li-	-co
=3-	=3-	=3-	=3-	=3-	=3-	=3-	=3-	=3-	=3-	=3-	=3-	=3-	=3-	=3-	=3-	=3-	=3-	=3-	=3-	=3-	=3-	=3-	=3-	=3-
*	*	*	*	*	*	*	*	*	*	*2\right	*	*	*	*	*2\right	*	*	*	*	*	*	*	*	*
2C/	-cto-	-ra-	.	Fa-	0c	-cto-	-ra-	-co-	Favo-	2e\	-cto-	-ra-	.	Fa-	2cc\	-cto-	-ra-	.	fa-	2g/	-cto-	-ra-	.	Fa-
1F	.	.	.	-vo-	.	.	.	.	.	2c/	.	.	.	-vo-	2.f/	.	.	.	-vo-	1a	.	.	.	-vo-
.	.	.	.	.	.	.	.	.	.	1f	.	.	-co-	.	.	.	.	.	.	.	.	.	.	.
.	.	.	.	.	.	.	.	.	.	.	.	.	.	.	4g/	.	.	.	.	.	.	.	.	.
4E/	.	.	co-	.	.	.	.	.	.	.	.	.	.	.	4a\	.	.	.	.	4g/	.	.	-co-	.
!	!	!	!	!	!	!	!	!	!	!	!	!	!	!	!LO:TX:t=P:problem=kreska pseudotaktowa	!	!	!	!	!	!	!	!	!
4D/	.	.	.	.	.	.	.	.	.	.	.	.	.	.	4b-\	.	.	.	.	4f/	.	.	.	.
=4-	=4-	=4-	=4-	=4-	=4-	=4-	=4-	=4-	=4-	=4-	=4-	=4-	=4-	=4-	=4-	=4-	=4-	=4-	=4-	=4-	=4-	=4-	=4-	=4-
!LO:TX:t=P:problem=kreska pseudotaktowa	!	!	!	!	!LO:TX:t=P:problem=kreska pseudotaktowa	!	!	!	!	!LO:TX:t=P:problem=kreska pseudotaktowa	!	!	!	!	!	!	!	!	!	!LO:TX:t=P:problem=kreska pseudotaktowa	!	!	!	!
0C	-rum	-te	-lae	-re	1c	-rum	-te	-lae	-re	1e	rum,	-te	-la	-re	2cc\	.	.	.	.	1g	-rum	-te	-lae	-re
.	.	.	.	.	.	.	.	.	.	.	.	.	.	.	4b-\	.	.	-co-	.	.	.	.	.	.
!	!	!	!	!	!	!	!	!	!	!	!	!	!	!	!LO:TX:t=P:problem=kreska pseudotaktowa	!	!	!	!	!	!	!	!	!
.	.	.	.	.	.	.	.	.	.	.	.	.	.	.	4a\	.	.	.	.	.	.	.	.	.
.	.	.	.	.	1c	pi-	pro	De-	nos	2r	.	.	.	.	2g,</	rum	-te	-la	-re	2r	.	.	.	.
!	!	!	!	!	!	!	!	!	!	!	!	!	!	!	!	!	!	!	!	!LO:TX:t=P:problem=kreska pseudotaktowa	!	!	!	!
.	.	.	.	.	.	.	.	.	.	2e\	pi-	pro	De-	nos	2cc\	pi-	pro	De-	nos	2g/	pi-	pro	De-	nos
=5-	=5-	=5-	=5-	=5-	=5-	=5-	=5-	=5-	=5-	=5-	=5-	=5-	=5-	=5-	=5-	=5-	=5-	=5-	=5-	=5-	=5-	=5-	=5-	=5-
*2\right	*	*	*	*	*	*	*	*	*	*	*	*	*	*	*	*	*	*	*	*2\right	*	*	*	*
2r	.	.	.	.	1G,<	-a	no-	-um	con-	1d	-a	no-	.	con-	2.dd\	-a	no-	-um	con-	2.b-\	-a	no-	-um	con-
!LO:TX:t=P:problem=kreska pseudotaktowa	!	!	!	!	!	!	!	!	!	!	!	!	!	!	!	!	!	!	!	!	!	!	!	!
2G\	pi-	pro	De-	nos	.	.	.	.	.	.	.	.	.	.	.	.	.	.	.	.	.	.	.	.
!	!	!	!	!	!	!	!	!	!	!	!	!	!	!	!LO:TX:t=P:problem=kreska pseudotaktowa	!	!	!	!	!	!	!	!	!
.	.	.	.	.	.	.	.	.	.	.	.	.	.	.	4cc\	ju-	-bis	de-	-so-	4a\	.	.	de-	-so-
2G\	-a	no-	-um	con-	1B-	ju-	-bis	de-	-ſo-	0d	ju-	.	-um	-so-	4b-\	.	.	.	.	4g/	.	.	.	.
.	.	.	.	.	.	.	.	.	.	.	.	.	.	.	4a\	-va-	mi-	-pos-	-le-	4f/	.	.	-po-	-le-
!LO:TX:t=P:problem=kreska pseudotaktowa	!	!	!	!	!	!	!	!	!	!	!	!	!	!	!	!	!	!	!	!	!	!	!	!
2G\	ju-	-bis	de-	-ſo-	.	.	.	.	.	.	.	.	.	.	2g/	-mi-	-ſe-	-ci-	-mi-	1g\	ju-	-bis	.	.
=6-	=6-	=6-	=6-	=6-	=6-	=6-	=6-	=6-	=6-	=6-	=6-	=6-	=6-	=6-	=6-	=6-	=6-	=6-	=6-	=6-	=6-	=6-	=6-	=6-
!	!	!	!	!	!	!	!	!	!	!	!	!	!	!	!LO:TX:t=P:problem=kreska pseudotaktowa	!	!	!	!	!	!	!	!	!
2D/	-va-	mi-	-pos-	-le-	1A	-va-	mi-	-pos-	-le-	.	.	.	.	.	1a	-na	-ris	-te	-ni	.	.	.	.	.
!LO:TX:t=P:problem=kreska pseudotaktowa	!	!	!	!	!	!	!	!	!	!	!	!	!	!	!	!	!	!	!	!	!	!	!	!
2F/	.	.	.	.	.	.	.	.	.	.	.	.	.	.	.	.	.	.	.	1f	-va-	mi-	.	.
!LO:TX:t=P:problem=kreska pseudotaktowa	!	!	!	!	!	!	!	!	!	!	!	!	!	!	!	!	!	!	!	!	!	!	!	!
1C	-mi-	-se-	-ci-	-mi-	1G	-mi-	-ſe-	-ci-	-mi-	1c	-va-	-bis	de-	-le-	2r	.	.	.	.	.	.	.	.	.
!	!	!	!	!	!	!	!	!	!	!	!	!	!	!	!LO:TX:t=P:problem=kreska pseudotaktowa	!	!	!	!	!	!	!	!	!
.	.	.	.	.	.	.	.	.	.	.	.	.	.	.	2cc\	ad	af-	to-	et	2e/	-mi-	-ſe-	-sci-	-mi-
=7-	=7-	=7-	=7-	=7-	=7-	=7-	=7-	=7-	=7-	=7-	=7-	=7-	=7-	=7-	=7-	=7-	=7-	=7-	=7-	=7-	=7-	=7-	=7-	=7-
!	!	!	!	!	!LO:TX:t=P:problem=kreska pseudotaktowa	!	!	!	!	!	!	!	!	!	!	!	!	!	!	!LO:TX:t=P:problem=kreska pseudotaktowa	!	!	!	!
2F,</	-na	-ris,	-te	-ni	00F,<	-na	-ris	-te	-ni	1.A	.	mi-	-pos-	.	1cc	Re-	-fli-	-ti-	De-	1f	-na	-ris	-te	-ni
!LO:TX:t=P:problem=kreska pseudotaktowa	!	!	!	!	!	!	!	!	!	!	!	!	!	!	!	!	!	!	!	!	!	!	!	!
2c\	ad	af-	to-	et	.	.	.	.	.	.	.	.	.	.	.	.	.	.	.	.	.	.	.	.
!	!	!	!	!	!	!	!	!	!	!	!	!	!	!	!LO:TX:t=P:problem=kreska pseudotaktowa	!	!	!	!	!	!	!	!	!
1c	Re-	-fli-	-ti-	De-	.	.	.	.	.	.	.	.	.	.	1a	-gis	-ctis	-us	-um	2r	.	.	.	.
.	.	.	.	.	.	.	.	.	.	2A/	-mi-	-ſe-	-ci-	-mi-	.	.	.	.	.	2cc\	ad	af-	to-	et
=8-	=8-	=8-	=8-	=8-	=8-	=8-	=8-	=8-	=8-	=8-	=8-	=8-	=8-	=8-	=8-	=8-	=8-	=8-	=8-	=8-	=8-	=8-	=8-	=8-
!LO:TX:t=P:problem=kreska pseudotaktowa	!	!	!	!	!	!	!	!	!	!	!	!	!	!	!	!	!	!	!	!	!	!	!	!
1A	-gis	-ctis	-us	-um	.	.	.	.	.	2F,</	-na	-ris	-te	-ni,	2r	.	.	.	.	1cc	Re-	-fli-	-ti-	De-
.	.	.	.	.	.	.	.	.	.	2f\	ad	af-	to-	et	2cc\	po-	suc-	ple-	pro	.	.	.	.	.
!	!	!	!	!	!	!	!	!	!	!	!	!	!	!	!	!	!	!	!	!LO:TX:t=P:problem=kreska pseudotaktowa	!	!	!	!
2r	.	.	.	.	.	.	.	.	.	1f	Re-	-fli-	-ti-	De-	2.dd\	-lo-	-cur-	-be-	no-	1a	-gis	-ctis	-us	-um
!LO:TX:t=P:problem=kreska pseudotaktowa	!	!	!	!	!	!	!	!	!	!	!	!	!	!	!	!	!	!	!	!	!	!	!	!
2d\	po-	suc-	ple-	pro	.	.	.	.	.	.	.	.	.	.	.	.	.	.	.	.	.	.	.	.
!	!	!	!	!	!	!	!	!	!	!	!	!	!	!	!LO:TX:t=P:problem=kreska pseudotaktowa	!	!	!	!	!	!	!	!	!
.	.	.	.	.	.	.	.	.	.	.	.	.	.	.	4cc\	.	.	.	.	.	.	.	.	.
=9-	=9-	=9-	=9-	=9-	=9-	=9-	=9-	=9-	=9-	=9-	=9-	=9-	=9-	=9-	=9-	=9-	=9-	=9-	=9-	=9-	=9-	=9-	=9-	=9-
2.d\	-lo-	-cur-	-be-	no-	1G	ad	af-	to-	et	0.d	-gis	-ctis	-us	-um	2.b-\	.	.	.	.	2rb	.	.	.	.
!	!	!	!	!	!	!	!	!	!	!	!	!	!	!	!	!	!	!	!	!LO:TX:t=P:problem=kreska pseudotaktowa	!	!	!	!
.	.	.	.	.	.	.	.	.	.	.	.	.	.	.	.	.	.	.	.	2dd\	po-	suc-	ple-	pro
!LO:TX:t=P:problem=kreska pseudotaktowa	!	!	!	!	!	!	!	!	!	!	!	!	!	!	!LO:TX:t=P:problem=kreska pseudotaktowa	!	!	!	!	!	!	!	!	!
4c\	.	.	.	.	.	.	.	.	.	.	.	.	.	.	4a\	.	.	.	.	.	.	.	.	.
2.B-X\	.	.	.	.	1G	Re-	-fli-	-tius	De-	.	.	.	.	.	1g	.	-ri-	-cu-	.	2.dd\	-lo-	-cur-	-be-	no-
*custos:G	*	*	*	*	*	*	*	*	*	*	*	*	*	*	*	*	*	*	*	*	*	*	*	*
!LO:TX:t=P:problem=kreska pseudotaktowa	!	!	!	!	!	!	!	!	!	!	!	!	!	!	!	!	!	!	!	!	!	!	!	!
4A\	.	.	.	.	.	.	.	.	.	.	.	.	.	.	.	.	.	.	.	4cc\	.	.	.	.
*xywh-#334:1183,1961,6142,1463	*	*	*	*	*	*	*	*	*	*	*	*	*	*	*	*	*	*	*	*	*	*	*	*
!LO:LB:g=original	!	!	!	!	!	!	!	!	!	!	!	!	!	!	!	!	!	!	!	!	!	!	!	!
=10-	=10-	=10-	=10-	=10-	=10-	=10-	=10-	=10-	=10-	=10-	=10-	=10-	=10-	=10-	=10-	=10-	=10-	=10-	=10-	=10-	=10-	=10-	=10-	=10-
!	!	!	!	!	!	!	!	!	!	!	!	!	!	!	!LO:TX:t=P:problem=kreska pseudotaktowa	!	!	!	!	!	!	!	!	!
2.G\	.	.	.	.	1B-X	-gis	-ctis	ple-	-um	.	.	.	.	.	1g,<	-rum	-te	-lae	-bis	2.b-X\	.	.	.	.
*	*	*	*	*	*	*	*	*	*	*	*	*	*	*	*	*	*	*	*	*custos:g	*	*	*	*
!	!	!	!	!	!	!	!	!	!	!	!	!	!	!	!	!	!	!	!	!LO:TX:t=P:problem=kreska pseudotaktowa	!	!	!	!
!LO:TX:t=P:problem=kreska pseudotaktowa	!	!	!	!	!	!	!	!	!	!	!	!	!	!	!	!	!	!	!	!	!	!	!	!
4F\	.	.	.	.	.	.	.	.	.	.	.	.	.	.	.	.	.	.	.	4a\	.	-ri-	-cu-	.
!	!	!	!	!	!	!	!	!	!	!	!	!	!	!	!	!	!	!	!	!LO:TX:t=P:problem=kreska pseudotaktowa	!	!	!	!
!	!	!	!	!	!	!	!	!	!	!	!	!	!	!	!LO:TX:t=P:problem=kreska pseudotaktowa	!	!	!	!	!LO:LB:g=original	!	!	!	!
*	*	*	*	*	*	*	*	*	*	*	*	*	*	*	*	*	*	*	*	*xywh-#82:1161,2116,6090,1535	*	*	*	*
2En/	.	.	.	.	1c	po-	suc-	-be-	pro	1d	po-	suc-	ple-	pro	0r	.	.	.	.	1g	-rum,	-te	-lae	-bis
2D/	.	-ri-	-cu-	.	.	.	.	.	.	.	.	.	.	.	.	.	.	.	.	.	.	.	.	.
=11-	=11-	=11-	=11-	=11-	=11-	=11-	=11-	=11-	=11-	=11-	=11-	=11-	=11-	=11-	=11-	=11-	=11-	=11-	=11-	=11-	=11-	=11-	=11-	=11-
!LO:TX:t=P:problem=kreska pseudotaktowa	!	!	!	!	!	!	!	!	!	!	!	!	!	!	!	!	!	!	!	!	!	!	!	!
0C,<	-rum	-te	-lae	-bis	0c	-lo-	-curri-	-cu-	no-	2.g\	-lo-	-cur-	-be-	no-	.	.	.	.	.	2r	.	.	.	.
.	.	.	.	.	.	.	.	.	.	.	.	.	.	.	.	.	.	.	.	2g/	ad	af-	to-	et
.	.	.	.	.	.	.	.	.	.	4f\	.	.	.	.	.	.	.	.	.	.	.	.	.	.
!	!	!	!	!	!	!	!	!	!	!	!	!	!	!	!	!	!	!	!	!LO:TX:t=P:problem=kreska pseudotaktowa	!	!	!	!
.	.	.	.	.	.	.	.	.	.	2.e\	.	.	.	.	2r	.	.	.	.	1g	Re-	-fli-	-ti-	De-
!	!	!	!	!	!	!	!	!	!	!	!	!	!	!	!LO:TX:t=P:problem=kreska pseudotaktowa	!	!	!	!	!	!	!	!	!
.	.	.	.	.	.	.	.	.	.	.	.	.	.	.	2cc\	nos	af-	Cri-	pro	.	.	.	.	.
.	.	.	.	.	.	.	.	.	.	4d\	.	.	.	.	.	.	.	.	.	.	.	.	.	.
=12-	=12-	=12-	=12-	=12-	=12-	=12-	=12-	=12-	=12-	=12-	=12-	=12-	=12-	=12-	=12-	=12-	=12-	=12-	=12-	=12-	=12-	=12-	=12-	=12-
!	!	!	!	!	!LO:TX:t=P:problem=kreska pseudotaktowa	!	!	!	!	!	!	!	!	!	!	!	!	!	!	!	!	!	!	!
2rD	.	.	.	.	1c,<	-rum	-te	-lae	-bis	2.c/	.	.	.	.	2.cc\	du-	-fli-	.	no-	2e/	-gis	-ctis	-us	-um
!LO:TX:t=P:problem=kreska pseudotaktowa	!	!	!	!	!	!	!	!	!	!	!	!	!	!	!	!	!	!	!	!	!	!	!	!
2F/	ad	af-	to-	et	.	.	.	.	.	.	.	.	.	.	.	.	.	.	.	2a\	po-	suc-	ple-	pro
.	.	.	.	.	.	.	.	.	.	4B-/	.	-ri-	-cu-	.	4b-\	.	.	.	.	.	.	.	.	.
*	*	*	*	*	*	*	*	*	*	*	*	*	*	*	*custos:a	*	*	*	*	*	*	*	*	*
!	!	!	!	!	!	!	!	!	!	!	!	!	!	!	!LO:TX:t=P:problem=kreska pseudotaktowa	!	!	!	!	!	!	!	!	!
!LO:TX:t=P:problem=kreska pseudotaktowa	!	!	!	!	!LO:LB:g=original	!	!	!	!	!LO:TX:t=P:problem=kreska pseudotaktowa	!	!	!	!	!	!	!	!	!	!	!	!	!	!
*	*	*	*	*	*xywh-#247:1183,1837,6111,1640	*	*	*	*	*	*	*	*	*	*	*	*	*	*	*	*	*	*	*
1F	Re-	-fli-	-ti-	De-	1c	nos	in	Cri-	sem-	0c	-rum	-te	-lae	-bis	1a	-cant	-ctis	-men	-bis	2.a\	-lo-	-cur-	-be-	no-
!	!	!	!	!	!	!	!	!	!	!	!	!	!	!	!	!	!	!	!	!LO:TX:t=P:problem=kreska pseudotaktowa	!	!	!	!
.	.	.	.	.	.	.	.	.	.	.	.	.	.	.	.	.	.	.	.	4g/	.	.	.	.
*	*	*	*	*	*	*	*	*	*	*xywh-#160:1348,1846,6021,1595	*	*	*	*	*	*	*	*	*	*	*	*	*	*
*	*	*	*	*	*	*	*	*	*	*	*	*	*	*	*xywh-#82:1283,4201,6081,1142	*	*	*	*	*	*	*	*	*
!	!	!	!	!	!	!	!	!	!	!LO:LB:g=original	!	!	!	!	!LO:LB:g=original	!	!	!	!	!	!	!	!	!
=13-	=13-	=13-	=13-	=13-	=13-	=13-	=13-	=13-	=13-	=13-	=13-	=13-	=13-	=13-	=13-	=13-	=13-	=13-	=13-	=13-	=13-	=13-	=13-	=13-
2F,</	-gis	-ctis	-us	-um	1A	du-	his	-men	-per	.	.	.	.	.	2r	.	.	.	.	2.f/	.	.	.	.
!LO:TX:t=P:problem=kreska pseudotaktowa	!	!	!	!	!	!	!	!	!	!	!	!	!	!	!	!	!	!	!	!	!	!	!	!
2F/	po-	suc-	ple-	pro	.	.	.	.	.	.	.	.	.	.	2a\	cul-	in	abs-	sem-	.	.	.	.	.
.	.	.	.	.	.	.	.	.	.	.	.	.	.	.	.	.	.	.	.	4e/	.	-ri-	-cu-	.
!	!	!	!	!	!	!	!	!	!	!LO:TX:t=P:problem=kreska pseudotaktowa	!	!	!	!	!LO:TX:t=P:problem=skreślony fragment	!	!	!	!	!LO:TX:t=P:problem=kreska pseudotaktowa	!	!	!	!
(2BB-/	-lo-	-cur-	-be-	no-	1F	-cant	mi-	abs-	pre-	1rg	.	.	.	.	2a\	.	his	.	-per	1d	-rum,	-te	-lae	-bis
!LO:TX:t=P:problem=kreska pseudotaktowa	!	!	!	!	!	!	!	!	!	!	!	!	!	!	!LO:TX:t=P:problem=kreska pseudotaktowa	!	!	!	!	!	!	!	!	!
2D/)	.	-ri-	-cu-	.	.	.	.	.	.	.	.	.	.	.	2f/	.	mi-	-ter-	pre-	.	.	.	.	.
=14-	=14-	=14-	=14-	=14-	=14-	=14-	=14-	=14-	=14-	=14-	=14-	=14-	=14-	=14-	=14-	=14-	=14-	=14-	=14-	=14-	=14-	=14-	=14-	=14-
!LO:TX:t=P:problem=kreska pseudotaktowa	!	!	!	!	!	!	!	!	!	!	!	!	!	!	!	!	!	!	!	!	!	!	!	!
1C	-rum	-te	-lae	-bis	1G	cul-	-ſe-	-ter-	-ce-	2r	.	.	.	.	2g\	.	-se-	.	-ce-	2r	.	.	.	.
!	!	!	!	!	!	!	!	!	!	!	!	!	!	!	!	!	!	!	!	!LO:TX:t=P:problem=kreska pseudotaktowa	!	!	!	!
.	.	.	.	.	.	.	.	.	.	2c/	ad	af-	to-	et	1cc	.	.	.	.	2g/	nos	in	cri-	sem-
!	!	!	!	!	!	!	!	!	!	!LO:TX:t=P:problem=kreska pseudotaktowa	!	!	!	!	!	!	!	!	!	!	!	!	!	!
2r	.	.	.	.	2.E/	.	.	.	.	1c	Re-	-flictis	-tius	DE-	.	.	.	.	.	2.g/	du-	his	-men	-per
!LO:TX:t=P:problem=kreska pseudotaktowa	!	!	!	!	!	!	!	!	!	!	!	!	!	!	!	!	!	!	!	!	!	!	!	!
2G\	nos	in	cri-	sem-	.	.	.	.	.	.	.	.	.	.	2g/	-mi-	-ri-	-gi-	mi-	.	.	.	.	.
!	!	!	!	!	!	!	!	!	!	!	!	!	!	!	!	!	!	!	!	!LO:TX:t=P:problem=kreska pseudotaktowa	!	!	!	!
.	.	.	.	.	4E/	-mi-	-ri-	-gi-	-mi-	.	.	.	.	.	.	.	.	.	.	4f/	-cant	mi-	abs-	pre-
=15-	=15-	=15-	=15-	=15-	=15-	=15-	=15-	=15-	=15-	=15-	=15-	=15-	=15-	=15-	=15-	=15-	=15-	=15-	=15-	=15-	=15-	=15-	=15-	=15-
!	!	!	!	!	!LO:TX:t=P:problem=kreska pseudotaktowa	!	!	!	!	!	!	!	!	!	!LO:TX:t=P:problem=kreska pseudotaktowa	!	!	!	!	!	!	!	!	!
2.G\	du-	his	-men	-per	0C	-na	-js	-te	-ni	2c/	-gis	suc-	ple-	-UM	1cc	-na	-is	-te	-ni	2.e/	cul-	-ſe-	-ter-	-ce-
.	.	.	.	.	.	.	.	.	.	2B-/	po-	-cur-	-be-	pro	.	.	.	.	.	.	.	.	.	.
!LO:TX:t=P:problem=kreska pseudotaktowa	!	!	!	!	!	!	!	!	!	!	!	!	!	!	!	!	!	!	!	!	!	!	!	!
4F\	-cant	mi-	abs-	pre-	.	.	.	.	.	.	.	.	.	.	.	.	.	.	.	4d/	-mi-	-ri-	-gi-	-mi-
!	!	!	!	!	!	!	!	!	!	!	!	!	!	!	!	!	!	!	!	!LO:TX:t=P:problem=kreska pseudotaktowa	!	!	!	!
2.E/	cul-	-ſe-	-ter-	-ce-	.	.	.	.	.	1c	-lo-	-ri-	-cu-	no-	2r	.	.	.	.	1c	-na	-js	-te	-ni
.	.	.	.	.	.	.	.	.	.	.	.	.	.	.	2cc\	nos	in	cri-	pro	.	.	.	.	.
!LO:TX:t=P:problem=kreska pseudotaktowa	!	!	!	!	!	!	!	!	!	!	!	!	!	!	!	!	!	!	!	!	!	!	!	!
4D/	-mi-	-ri-	-gi-	-mi-	.	.	.	.	.	.	.	.	.	.	.	.	.	.	.	.	.	.	.	.
=16-	=16-	=16-	=16-	=16-	=16-	=16-	=16-	=16-	=16-	=16-	=16-	=16-	=16-	=16-	=16-	=16-	=16-	=16-	=16-	=16-	=16-	=16-	=16-	=16-
1C,	-na	-is,	-te,	-ni	1G	nos	in	cri-	sem-	1G	-rum	-te	-lae	-bis	2.cc\	du-	his	-men	no-	2r	.	.	.	.
!	!	!	!	!	!	!	!	!	!	!	!	!	!	!	!	!	!	!	!	!LO:TX:t=P:problem=kreska pseudotaktowa	!	!	!	!
.	.	.	.	.	.	.	.	.	.	.	.	.	.	.	.	.	.	.	.	2cc\	nos	in	cri-	sem-
!	!	!	!	!	!	!	!	!	!	!	!	!	!	!	!LO:TX:t=P:problem=kreska pseudotaktowa	!	!	!	!	!	!	!	!	!
.	.	.	.	.	.	.	.	.	.	.	.	.	.	.	4b-\	-cant	mi-	abs-	.	.	.	.	.	.
2rBB	.	.	.	.	1G	du-	his	-men	-per	2r	.	.	.	.	2.a\	cul-	-ſe-	-ter-	.	2.cc\	du-	his	-men	-per
!LO:TX:t=P:problem=kreska pseudotaktowa	!	!	!	!	!	!	!	!	!	!	!	!	!	!	!	!	!	!	!	!	!	!	!	!
2C/	nos	in	cri-	sem-	.	.	.	.	.	2e\	nos	in	cri-	sem-	.	.	.	.	.	.	.	.	.	.
!	!	!	!	!	!	!	!	!	!	!	!	!	!	!	!	!	!	!	!	!LO:TX:t=P:problem=kreska pseudotaktowa	!	!	!	!
.	.	.	.	.	.	.	.	.	.	.	.	.	.	.	4g/	-mi-	-ri-	-gi-	.	4b-\	-cant	mi-	abs-	pre-
=17-	=17-	=17-	=17-	=17-	=17-	=17-	=17-	=17-	=17-	=17-	=17-	=17-	=17-	=17-	=17-	=17-	=17-	=17-	=17-	=17-	=17-	=17-	=17-	=17-
!LO:TX:t=P:problem=kreska pseudotaktowa	!	!	!	!	!	!	!	!	!	!	!	!	!	!	!LO:TX:t=P:problem=kreska pseudotaktowa	!	!	!	!	!	!	!	!	!
1D	du-	his	-men	-per	1F	-cant	mi-	abs-	pre-	2.f\	du-	his	-men	-per	1f	-na	-js	-te	-bis	4a\	cul-	-se-	-ter-	-ce-
.	.	.	.	.	.	.	.	.	.	.	.	.	.	.	.	.	.	.	.	4g\	.	.	.	.
.	.	.	.	.	.	.	.	.	.	.	.	.	.	.	.	.	.	.	.	1f	.	.	.	.
.	.	.	.	.	.	.	.	.	.	4e\	.	.	.	.	.	.	.	.	.	.	.	.	.	.
!LO:TX:t=P:problem=kreska pseudotaktowa	!	!	!	!	!	!	!	!	!	!	!	!	!	!	!	!	!	!	!	!	!	!	!	!
1BB-	-cant	mi-	abs-	pre-	1B-	cul-	-ſe-	-ter-	-ce-	2d\	-cant	mi-	abs-	pre-	2r	.	.	.	.	.	.	.	.	.
!	!	!	!	!	!	!	!	!	!	!	!	!	!	!	!LO:TX:t=P:problem=kreska pseudotaktowa	!	!	!	!	!	!	!	!	!
*	*	*	*	*	*	*	*	*	*	*	*	*	*	*	*	*	*	*	*	*lig	*	*	*	*
.	.	.	.	.	.	.	.	.	.	1d\	cul-	-ſe-	-ter-	-ce-	2a\	cul-	mi-	abs-	pre-	1g\	.	.	.	.
=18-	=18-	=18-	=18-	=18-	=18-	=18-	=18-	=18-	=18-	=18-	=18-	=18-	=18-	=18-	=18-	=18-	=18-	=18-	=18-	=18-	=18-	=18-	=18-	=18-
1F	cul-	-ſe-	-ter-	-ce-	1A	.	.	.	.	.	.	.	.	.	2g/	.	-se-	-ter-	-ce-	.	.	.	.	.
.	.	.	.	.	.	.	.	.	.	2c/	.	.	.	.	2.cc\	.	.	.	.	1f	.	.	.	.
2.C/	.	.	.	.	2.G/	.	.	.	.	2.c/	.	.	.	.	.	.	.	.	.	.	.	.	.	.
.	.	.	.	.	.	.	.	.	.	.	.	.	.	.	4b-\	.	.	.	.	.	.	.	.	.
*	*	*	*	*	*	*	*	*	*	*	*	*	*	*	*	*	*	*	*	*Xlig	*	*	*	*
.	.	.	.	.	.	.	.	.	.	.	.	.	.	.	2g/	-mi-	-ri-	gi-	-mi-	2e/	-mi-	-ri-	-gi-	-mi-
4C/	-mi-	-ri-	-gi-	-mi-	4G/	-mi-	-ri-	-gi-	-mi-	4c/	-mi-	ri-	-gi-	-mi-	.	.	.	.	.	.	.	.	.	.
=19-	=19-	=19-	=19-	=19-	=19-	=19-	=19-	=19-	=19-	=19-	=19-	=19-	=19-	=19-	=19-	=19-	=19-	=19-	=19-	=19-	=19-	=19-	=19-	=19-
0Fl	-na	-js.	-te.	-ni.	0Fl;	-na.	-js.	-te.	-ni.	0cl;	-na.	-js.	-te.	-ni.	0al;	-na.	-js.	-te.	-ni.	0fl;	-na.	-js.	-te.	-ni.
==	==	==	==	==	==	==	==	==	==	==	==	==	==	==	==	==	==	==	==	==	==	==	==	==
*-	*-	*-	*-	*-	*-	*-	*-	*-	*-	*-	*-	*-	*-	*-	*-	*-	*-	*-	*-	*-	*-	*-	*-	*-
!!!system-decoration: [g1]
!!!RDF**kern: > = above
!!!RDF**kern: < = below
!!!RDF**kern: l = terminal long
!!!ENC: Andrzej Kubiczek
!!!END: 2021-03-20
!!!ENC: Andrzej Kubiczek
!!!END: 2021-03-04
!!!ENC-iiif: Lidia Bialucha
!!!END-iiif: 2022-09-16
!!!YEC: Copyright 2022 Narodowy Instytut Fryderyka Chopina (https://polishscores.org)
!!!YEM: License CC-BY-4.0 (https://creativecommons.org/licenses/by/4.0)
